X: 11720
T: El Rorro
R: waltz
M: 3/4
K: Eminor
Bd B|d2 cA cA|c2 BB dB|d2 cA cA|
c2 (B4|B4) BA|GF EF GA|B2 BB BA|
GF EF GA|HB3 B dB|d2 cA cA|
c2 BB dB|d2 cA cA|c2 (B4|B3)||

